src/lib/packages/icons/src/assets/line/ethereum.svg

<svg width="24" height="24" viewBox="0 0 24 24" fill="none" xmlns="http://www.w3.org/2000/svg">
<path d="M18.748 13.056C18.753 12.971 18.739 12.887 18.715 12.804C18.708 12.78 18.698 12.759 18.689 12.735C18.678 12.707 18.672 12.677 18.657 12.65L13.376 3.06299C13.1 2.56199 12.573 2.25 12.001 2.25C11.429 2.25 10.901 2.56199 10.626 3.06299L5.345 12.65C5.33 12.677 5.32399 12.707 5.31299 12.735C5.30399 12.758 5.29399 12.78 5.28699 12.804C5.26299 12.887 5.249 12.971 5.254 13.056C5.254 13.059 5.25501 13.062 5.25501 13.066C5.25601 13.078 5.261 13.088 5.262 13.1C5.271 13.173 5.29102 13.244 5.32102 13.312C5.32502 13.32 5.324 13.329 5.328 13.337C5.33 13.34 5.329 13.344 5.331 13.348C5.333 13.351 5.33601 13.3531 5.33801 13.3571C5.34201 13.3651 5.35001 13.371 5.35501 13.379C5.36701 13.4 5.373 13.422 5.387 13.442L10.714 21.078C11.007 21.499 11.489 21.75 12.002 21.75C12.515 21.75 12.997 21.499 13.29 21.078L18.617 13.441C18.628 13.425 18.633 13.408 18.642 13.391C18.651 13.375 18.664 13.363 18.673 13.347C18.675 13.344 18.674 13.3401 18.676 13.3361C18.68 13.3281 18.679 13.319 18.683 13.311C18.713 13.242 18.733 13.172 18.742 13.099C18.743 13.087 18.749 13.0769 18.749 13.0649C18.747 13.0619 18.748 13.059 18.748 13.056ZM11.938 3.78699H12.062L16.181 11.264L12.336 9.34094C12.125 9.23594 11.876 9.23594 11.665 9.34094L7.82001 11.264L11.938 3.78699ZM16.045 12.873L12 14.2209L7.95499 12.873L12 10.85L16.045 12.873ZM12.058 20.22C12.058 20.22 11.986 20.22 11.956 20.22C11.948 20.22 11.943 20.22 11.943 20.22L7.91001 14.4399L11.763 15.724C11.84 15.75 11.92 15.7629 12 15.7629C12.08 15.7629 12.16 15.75 12.237 15.724L16.09 14.4399L12.058 20.22Z" fill="currentColor"/>
</svg>

<svg xmlns="http://www.w3.org/2000/svg" width="24" height="24" fill="none"><path fill="currentColor" d="M18.748 13.056a.748.748 0 0 0-.033-.252c-.007-.024-.017-.045-.026-.069-.011-.028-.017-.058-.032-.085l-5.281-9.587a1.57 1.57 0 0 0-2.75 0L5.345 12.65c-.015.027-.021.057-.032.085-.009.023-.019.045-.026.069a.747.747 0 0 0-.033.252l.001.01c.001.012.006.022.007.034a.752.752 0 0 0 .059.212c.004.008.003.017.007.025.002.003.001.007.003.011.002.003.005.005.007.01.004.007.012.013.017.021.012.021.018.043.032.063l5.327 7.636a1.57 1.57 0 0 0 2.576 0l5.327-7.637c.011-.016.016-.033.025-.05.009-.016.022-.028.031-.044.002-.003.001-.007.003-.01.004-.009.003-.018.007-.026a.762.762 0 0 0 .059-.212c.001-.012.007-.022.007-.034-.002-.003-.001-.006-.001-.009Zm-6.81-9.269h.124l4.119 7.477-3.845-1.923a.754.754 0 0 0-.671 0L7.82 11.264l4.118-7.477Zm4.107 9.086L12 14.221l-4.045-1.348L12 10.85l4.045 2.023Zm-3.987 7.347h-.115L7.91 14.44l3.853 1.284a.74.74 0 0 0 .474 0l3.853-1.284-4.032 5.78Z"/></svg>
